src/static/logos/autoprefixer.svg

<?xml version="1.0" encoding="UTF-8" standalone="no"?>
<svg width="256px" height="193px" viewBox="0 0 256 193" version="1.1" xmlns="http://www.w3.org/2000/svg" xmlns:xlink="http://www.w3.org/1999/xlink" preserveAspectRatio="xMidYMid">
	<g fill="#DD3835">
		<path d="M62.2594273,192.231662 L93.1619166,192.231662 L102.705332,159.511379 L150.422412,159.511379 L159.965828,192.231662 L192.68611,192.231662 L128.154442,0 L62.2594273,192.231662 L62.2594273,192.231662 Z M128.154442,83.6185008 L144.514583,136.334512 L111.7943,136.334512 L128.154442,83.6185008 L128.154442,83.6185008 Z M255.854434,154.512447 L252.673296,141.333444 L185.414936,134.516719 L194.049456,157.693586 L255.854434,154.512447 L255.854434,154.512447 Z M70.439498,136.334512 L3.18113862,143.151238 L0,156.330241 L62.2594273,159.511379 L70.439498,136.334512 L70.439498,136.334512 Z"></path>
	</g>
</svg>

<svg width="256" height="193" xmlns="http://www.w3.org/2000/svg" preserveAspectRatio="xMidYMid"><path d="M62.26 192.232h30.902l9.543-32.72h47.717l9.544 32.72h32.72L128.154 0 62.26 192.232zm65.894-108.613l16.36 52.716h-32.72l16.36-52.716zm127.7 70.893l-3.18-13.179-67.26-6.816 8.635 23.177 61.805-3.182zM70.44 136.335L3.181 143.15 0 156.331l62.26 3.18 8.18-23.176z" fill="#DD3835"/></svg>
